X:59
T:Shenandoah (Bullen)
M:2/4
L:1/8
K:Db
F|\
AF FF|AF FF|AF EE|F2 E2|F3 E|(FE F2)|
M:4/4
L:1/8
B,2-B,>D F3F|
M:2/4
L:1/8
AF FF|AF FF|AF EE|F2 B,2|
M:4/4
L:1/8
B,2D2 E2F2|C2-C>D D3||
